public/static/img/common/notice.svg

<svg width="36" height="36" viewBox="0 0 36 36" fill="none" xmlns="http://www.w3.org/2000/svg">
<circle cx="18" cy="18" r="18" fill="white" fill-opacity="0.1"/>
<path d="M25.4684 24.6193H11.8228C11.4312 24.6193 11.0667 24.4246 10.8472 24.1009C10.6276 23.7749 10.5846 23.3652 10.7317 23.0007L11.8454 20.2503V16.0715C11.8454 15.191 12.0197 14.3353 12.3638 13.5271C12.6943 12.7484 13.1674 12.0489 13.7696 11.4468C14.3717 10.8447 15.0712 10.3715 15.8499 10.041C16.6581 9.69696 17.5137 9.52266 18.3943 9.52266H18.4102C19.2907 9.52266 20.1464 9.69696 20.9546 10.041C21.7333 10.3715 22.4328 10.8447 23.0349 11.4468C23.637 12.0489 24.1102 12.7484 24.4407 13.5271C24.7847 14.3353 24.959 15.191 24.959 16.0715V20.1983L26.487 22.8558C26.6998 23.2248 26.6976 23.664 26.4848 24.033C26.2743 24.3997 25.8917 24.6193 25.4684 24.6193ZM12.2257 23.1705H24.9975L23.5103 20.5853V16.0715C23.5103 14.7156 22.9783 13.4366 22.0117 12.47C21.0451 11.5034 19.7661 10.9714 18.4102 10.9714H18.3943C17.0384 10.9714 15.7594 11.5034 14.7928 12.47C13.8262 13.4366 13.2942 14.7156 13.2942 16.0715V20.5333L12.2257 23.1705ZM16.6015 11.1752C16.2959 11.1752 16.0265 10.9556 15.9722 10.6454C15.9473 10.5051 15.9359 10.3625 15.9359 10.2221C15.9359 8.87524 17.0316 7.77734 18.3807 7.77734C19.7299 7.77734 20.8255 8.87297 20.8255 10.2221C20.8255 10.3625 20.812 10.5051 20.7893 10.6454C20.7282 10.9895 20.4022 11.2227 20.0559 11.1661L18.7701 10.9578C18.512 10.9148 18.2494 10.9148 17.9891 10.9578L16.7033 11.1661C16.6694 11.1729 16.6354 11.1752 16.6015 11.1752ZM18.3785 9.64716C18.5777 9.64716 18.7769 9.663 18.9738 9.6947L19.4537 9.77166C19.2772 9.35288 18.8629 9.05633 18.3785 9.05633C17.894 9.05633 17.4798 9.35288 17.3032 9.77166L17.7831 9.6947C17.9823 9.663 18.1815 9.64716 18.3785 9.64716ZM21.6993 27.3198H15.3315C14.9331 27.3198 14.6072 26.9939 14.6072 26.5955C14.6072 26.1971 14.9331 25.8711 15.3315 25.8711H21.6993C22.0977 25.8711 22.4237 26.1971 22.4237 26.5955C22.4237 26.9939 22.0977 27.3198 21.6993 27.3198Z" fill="white"/>
<circle cx="23.5" cy="11.5" r="2.5" fill="#CC3639"/>
</svg>

<svg width="36" height="36" fill="none" xmlns="http://www.w3.org/2000/svg"><circle cx="18" cy="18" r="18" fill="#fff" fill-opacity=".1"/><path d="M25.468 24.62H11.823A1.178 1.178 0 0 1 10.732 23l1.113-2.75v-4.178a6.546 6.546 0 0 1 1.924-4.625 6.548 6.548 0 0 1 4.625-1.924h.016a6.548 6.548 0 0 1 4.625 1.924 6.548 6.548 0 0 1 1.924 4.624v4.127l1.528 2.658c.213.369.21.808-.002 1.177a1.16 1.16 0 0 1-1.017.586Zm-13.242-1.45h12.771l-1.487-2.585v-4.514a5.063 5.063 0 0 0-1.498-3.601 5.063 5.063 0 0 0-3.602-1.499h-.016a5.063 5.063 0 0 0-3.601 1.499 5.063 5.063 0 0 0-1.499 3.601v4.462l-1.068 2.637Zm4.376-11.995a.64.64 0 0 1-.63-.53 2.448 2.448 0 0 1 2.409-2.868 2.446 2.446 0 0 1 2.408 2.868.64.64 0 0 1-.733.521l-1.286-.208a2.38 2.38 0 0 0-.78 0l-1.287.208a.515.515 0 0 1-.101.01Zm1.776-1.528c.2 0 .399.016.596.048l.48.077a1.168 1.168 0 0 0-1.076-.716c-.484 0-.898.297-1.075.716l.48-.077c.2-.032.398-.048.595-.048ZM21.7 27.32h-6.368a.726.726 0 0 1-.724-.724c0-.399.326-.725.725-.725H21.7c.399 0 .725.326.725.725a.726.726 0 0 1-.725.724Z" fill="#fff"/><circle cx="23.5" cy="11.5" r="2.5" fill="#CC3639"/></svg>
